svg/logo.svg

<svg width="156" height="40" viewBox="0 0 156 40" fill="none" xmlns="http://www.w3.org/2000/svg">
                        <path
                            d="M7.34037 9.20041C7.31358 9.61861 7.26 9.91732 7.26 10.216C7.26 12.4564 7.23321 14.6967 7.26 16.9371C7.26 17.5644 7.09926 17.7735 6.53666 17.7735C4.76849 17.7735 4.76849 17.7735 4.76849 15.802C4.76849 13.6214 4.76849 11.4109 4.76849 9.23028C4.76849 7.85621 5.54541 7.07955 6.75098 6.98994C8.0905 6.87045 9.10854 7.22891 10.073 8.39389C12.0019 10.694 14.0915 12.8148 16.1008 14.9954C16.208 15.1149 16.3152 15.2045 16.5563 15.4136C16.5831 15.0253 16.6366 14.7565 16.6366 14.5175C16.6366 12.6655 16.6366 10.8135 16.6366 8.93157C16.6366 7.67698 17.1724 7.04968 18.3244 7.01981C18.8334 6.98994 19.3425 7.04968 19.8515 6.98994C20.4409 6.9302 20.8695 7.19904 21.2714 7.64711C23.4682 10.0667 25.6918 12.4564 27.9154 14.876C28.0493 15.0253 28.2101 15.1747 28.478 15.4435C28.5048 14.9954 28.5316 14.7565 28.5316 14.5175C28.5316 12.6356 28.5316 10.7537 28.5316 8.87183C28.5316 7.67698 29.0406 7.07955 30.139 7.01981C30.5944 6.98994 31.0231 7.01981 31.3714 7.01981C31.2642 7.76659 31.0767 8.4835 31.0767 9.23028C31.0231 11.4408 31.0767 13.6512 31.0499 15.8617C31.0499 16.25 30.9963 16.6682 30.8891 17.0566C30.7284 17.5345 30.4069 17.8332 29.9247 17.8033C29.4424 17.7735 28.9334 17.7436 28.4512 17.8033C27.46 17.9527 26.7634 17.4748 26.0936 16.6981C24.0308 14.3681 21.9143 12.0681 19.7979 9.76797C19.6372 9.58874 19.4764 9.43938 19.1817 9.17054C19.1549 9.61861 19.1281 9.85758 19.1281 10.0966C19.1281 12.0979 19.1281 14.0993 19.1281 16.1007C19.1281 17.3553 18.7531 17.8033 17.6547 17.7735C14.6541 17.7137 15.6186 18.2215 13.4486 15.8617C11.6 13.7707 9.75151 11.7395 7.87618 9.70822C7.74223 9.55887 7.58148 9.43938 7.34037 9.20041Z"
                            fill="white" />
                        <path
                            d="M48.0895 17.8627C48.0895 15.473 48.0895 13.1132 48.0895 10.7235C48.0895 8.39354 49.3754 6.95972 51.4651 6.95972C53.5279 6.95972 55.564 6.95972 57.6269 6.95972C59.6093 6.95972 60.9221 8.42341 60.9221 10.604C60.9221 11.8287 60.9221 13.0833 60.9221 14.3081C60.9221 16.1899 59.6629 17.6835 57.9483 17.7134C55.8319 17.7433 53.7155 17.7134 51.599 17.7433C50.6614 17.7433 50.6614 17.7433 50.6614 18.7589C50.6614 20.3421 50.6614 21.8954 50.6614 23.4785C50.6614 24.8228 50.0452 25.7189 48.8664 26.0773C48.1698 26.2864 48.0627 26.1968 48.0627 25.4202C48.0895 22.8811 48.0895 20.3719 48.0895 17.8627ZM54.4924 15.5328C55.3229 15.5328 56.1534 15.5328 56.9839 15.5328C57.9215 15.5328 58.3234 15.0847 58.3234 14.0691C58.3234 12.934 58.3234 11.769 58.3234 10.6339C58.3234 9.73775 57.9483 9.20006 57.1446 9.17019C55.3765 9.11045 53.6083 9.11045 51.8401 9.17019C51.0364 9.20006 50.6614 9.70788 50.6614 10.604C50.6614 11.769 50.6614 12.934 50.6614 14.099C50.6614 15.025 51.09 15.5029 51.9205 15.5029C52.8046 15.5328 53.6619 15.5328 54.4924 15.5328Z"
                            fill="white" />
                        <path
                            d="M121.253 31.126C119.807 31.126 118.36 31.0961 116.887 31.126C116.431 31.126 116.244 30.9766 116.244 30.4389C116.297 28.4973 116.003 28.8259 117.69 28.8259C120.075 28.796 122.486 28.8259 124.87 28.8259C125.031 28.8259 125.218 28.8259 125.379 28.8259C125.942 28.796 126.37 28.3479 126.344 27.8102C126.344 27.3024 125.888 26.8543 125.326 26.8543C123.45 26.8543 121.575 26.8842 119.7 26.8245C119.191 26.8245 118.628 26.705 118.146 26.4959C116.806 25.9283 116.163 24.7335 116.244 23.21C116.324 21.9554 117.315 20.7307 118.574 20.4021C118.896 20.3125 119.244 20.2528 119.592 20.2528C122.379 20.2528 125.138 20.2528 127.924 20.2229C128.46 20.2229 128.621 20.4021 128.621 20.9996C128.567 22.8217 128.835 22.523 127.228 22.523C124.924 22.5529 122.62 22.523 120.316 22.523C120.155 22.523 120.021 22.523 119.86 22.523C119.298 22.5529 118.869 22.9711 118.896 23.5088C118.896 24.0464 119.325 24.4945 119.887 24.4945C121.762 24.4945 123.638 24.4945 125.513 24.5244C125.942 24.5244 126.37 24.5841 126.772 24.7335C128.139 25.1816 129.023 26.466 128.996 27.8401C128.969 29.3337 127.951 30.6181 126.504 30.9467C126.103 31.0363 125.701 31.0662 125.299 31.0961C123.932 31.126 122.593 31.126 121.253 31.126Z"
                            fill="white" />
                        <path
                            d="M72.682 20.2527C72.5481 20.88 72.3605 21.4774 72.3337 22.0749C72.3069 24.4645 72.3069 26.8244 72.3069 29.2141C72.3069 30.618 71.8515 31.0063 70.6459 31.1557C69.0385 31.3349 67.8597 30.7076 66.7881 29.3933C64.9664 27.1828 62.9839 25.1516 61.055 23.0606C60.921 22.9112 60.7335 22.7619 60.4656 22.493C60.4388 22.9411 60.412 23.21 60.412 23.4788C60.412 25.7789 60.3852 28.1088 60.412 30.4089C60.412 30.9765 60.2781 31.1856 59.769 31.1557C59.3136 31.1258 58.8314 31.1258 58.3491 31.1557C57.9741 31.1856 57.8133 31.0362 57.8133 30.5881C57.8133 27.9595 57.7865 25.3607 57.8401 22.732C57.8669 21.0592 58.6706 20.2826 60.1709 20.2826C60.4656 20.2826 60.7603 20.3124 61.055 20.2826C61.6444 20.2228 62.073 20.4618 62.4749 20.9099C64.5913 23.2398 66.7345 25.5698 68.8778 27.8997C69.0921 28.1387 69.3332 28.3478 69.7083 28.7063C69.7351 28.2881 69.7351 28.0192 69.7351 27.7802C69.7351 25.988 69.7351 24.1957 69.7351 22.4333C69.7351 20.9995 70.2977 20.3423 71.6104 20.2826C72.0122 20.2228 72.4141 20.2527 72.682 20.2527Z"
                            fill="white" />
                        <path
                            d="M153.455 31.1257C151.124 31.1257 148.927 31.1257 146.704 31.1257C145.846 31.1257 145.07 30.8868 144.373 30.2893C143.676 29.6919 143.275 28.9451 143.301 27.8996C143.328 26.3463 143.301 24.793 143.328 23.2696C143.355 21.8955 144.4 20.6409 145.766 20.4617C145.766 20.7305 145.793 20.9695 145.793 21.2085C145.793 23.2397 145.793 25.2709 145.793 27.2723C145.793 28.3776 146.195 28.7958 147.186 28.8256C148.847 28.8256 150.508 28.8256 152.196 28.8256C153.107 28.8256 153.455 28.4074 153.455 27.3918C153.482 25.8982 153.428 24.4047 153.562 22.9111C153.669 21.6266 154.687 20.6708 155.973 20.4617C156 20.7305 156 20.9695 156 21.2085C156 27.0334 156 32.8284 156 38.6533C156 39.4897 155.893 39.5793 155.196 39.3702C154.098 39.0416 153.428 38.0857 153.428 36.8013C153.428 34.9194 153.455 33.0674 153.455 31.1257Z"
                            fill="white" />
                        <path
                            d="M98.1592 17.7136C96.6321 17.7136 95.1319 17.6837 93.6048 17.7136C93.1226 17.7136 92.9351 17.5642 92.9351 16.9668C92.9886 15.2343 92.7475 15.5031 94.2746 15.5031C96.7125 15.4732 99.1504 15.5031 101.588 15.5031C101.803 15.5031 102.017 15.533 102.231 15.4732C102.687 15.3836 103.089 15.0252 103.035 14.5174C102.981 14.1589 102.66 13.7706 102.365 13.5316C102.178 13.3822 101.829 13.4121 101.562 13.4121C99.713 13.4121 97.8377 13.4121 95.9892 13.4121C94.7032 13.3822 93.4709 12.4264 93.1226 11.2016C92.5064 9.14053 93.9531 6.95992 96.016 6.95992C98.9361 6.93005 101.856 6.95992 104.803 6.93005C105.178 6.93005 105.339 7.04954 105.339 7.49761C105.312 9.43924 105.527 9.11066 103.946 9.11066C101.669 9.14053 99.4183 9.11066 97.1412 9.11066C96.9 9.11066 96.6321 9.14053 96.391 9.20027C95.882 9.31975 95.5605 9.67821 95.6141 10.2458C95.6409 10.8432 96.016 11.1718 96.5518 11.2016C97.3823 11.2315 98.2128 11.2016 99.0433 11.2016C100.195 11.2016 101.347 11.112 102.499 11.2315C103.223 11.3211 103.999 11.6497 104.616 12.0978C105.58 12.8147 105.875 14.2485 105.527 15.5031C105.205 16.5785 103.973 17.624 102.874 17.6538C101.267 17.7435 99.713 17.7136 98.1592 17.7136Z"
                            fill="white" />
                        <path
                            d="M39.6496 17.7134C38.5512 17.7134 37.4795 17.7433 36.3811 17.7134C34.5058 17.6835 33.327 16.3393 33.327 14.2483C33.327 12.934 33.327 11.6197 33.327 10.3053C33.327 8.42344 34.5862 6.95975 36.274 6.92987C38.5244 6.9 40.748 6.9 42.9984 6.92987C44.3647 6.95975 46.1596 8.24421 46.0525 10.3949C45.9989 11.7093 46.0525 13.0236 46.0525 14.338C46.0525 16.1601 44.8201 17.6238 43.1591 17.6835C42.0071 17.7433 40.8283 17.7134 39.6496 17.7134ZM39.6496 15.5328C40.5069 15.5328 41.3641 15.5328 42.2214 15.5328C43.0787 15.5328 43.4806 15.0847 43.4806 14.1289C43.4806 12.9639 43.4806 11.7989 43.4806 10.6339C43.4806 9.7079 43.1323 9.20009 42.3286 9.17022C40.5604 9.11048 38.7923 9.11048 37.0241 9.17022C36.2204 9.20009 35.8453 9.70791 35.8185 10.604C35.8185 11.769 35.8185 12.934 35.8185 14.099C35.8185 15.025 36.274 15.5029 37.1045 15.5029C37.935 15.5328 38.7923 15.5328 39.6496 15.5328Z"
                            fill="white" />
                        <path
                            d="M69.4138 17.7134C68.3154 17.7134 67.2438 17.7134 66.1453 17.7134C64.2432 17.6836 63.0645 16.3095 63.0645 14.2185C63.0645 12.9042 63.0645 11.5898 63.0645 10.3054C63.0645 8.48322 64.3236 6.98965 65.9846 6.95978C68.2618 6.92991 70.539 6.92991 72.843 6.95978C74.1825 6.98965 75.9238 8.30399 75.7899 10.3651C75.7095 11.7093 75.7631 13.0834 75.7631 14.4276C75.7631 16.1601 74.5575 17.6238 72.9769 17.6836C71.7981 17.7433 70.6194 17.7134 69.4138 17.7134ZM69.4406 15.5328C70.2711 15.5328 71.1016 15.5328 71.9321 15.5328C72.8162 15.5328 73.2716 15.0848 73.2984 14.1289C73.3252 12.934 73.3252 11.7392 73.2984 10.5742C73.2716 9.73781 72.843 9.20013 72.0928 9.20013C70.2979 9.17026 68.5029 9.17026 66.708 9.20013C65.9578 9.23 65.556 9.76768 65.5292 10.6041C65.5024 11.7989 65.5024 12.9938 65.5292 14.1588C65.556 15.025 66.0114 15.5328 66.7883 15.5328C67.6724 15.5328 68.5565 15.5328 69.4406 15.5328Z"
                            fill="white" />
                        <path
                            d="M45.5435 20.4022C45.5435 20.7308 45.5435 20.9698 45.5435 21.2386C45.5435 23.2997 45.5435 25.331 45.5435 27.3921C45.5435 28.3778 45.9454 28.8259 46.8294 28.8259C48.544 28.8259 50.2318 28.8259 51.9464 28.8259C52.8037 28.8259 53.2056 28.4077 53.2056 27.4518C53.2056 26.1375 53.2056 24.8232 53.2056 23.5387C53.2323 21.9854 54.2772 20.7009 55.7506 20.462C55.7774 20.7308 55.7774 20.9698 55.7774 21.2087C55.7774 23.2699 55.6971 25.3011 55.8042 27.3622C55.9114 29.8117 54.2504 31.0961 52.5358 31.1559C50.4461 31.2156 48.3565 31.1857 46.2668 31.1559C45.356 31.1559 44.5523 30.7974 43.8825 30.1104C43.3467 29.5727 43.052 28.9454 43.052 28.109C43.0788 26.5856 43.052 25.0621 43.052 23.5387C43.052 21.8958 43.9629 20.7607 45.5435 20.4022Z"
                            fill="white" />
                        <path
                            d="M138.346 20.2526C139.283 20.2526 140.114 20.2825 140.971 20.2526C141.4 20.2227 141.587 20.4019 141.561 20.9098C141.507 22.941 141.802 22.5228 140.087 22.5825C139.525 22.5825 138.989 22.5825 138.373 22.5825C138.373 24.2553 138.319 25.8684 138.399 27.4814C138.426 28.2282 139.203 28.8256 139.926 28.8555C140.569 28.8854 141.212 28.8854 141.855 28.8555C142.204 28.8555 142.338 29.0049 142.364 29.3932C142.445 31.1556 142.472 31.1855 140.864 31.1556C140.007 31.1556 139.15 31.1556 138.319 31.0062C136.712 30.7075 135.801 29.4529 135.801 27.6308C135.801 23.8371 135.801 20.0734 135.801 16.2797C135.801 15.0251 136.738 13.89 137.783 13.8004C138.239 13.7705 138.399 13.9199 138.399 14.4277C138.373 16.1005 138.399 17.7733 138.399 19.4162C138.346 19.685 138.346 19.924 138.346 20.2526Z"
                            fill="white" />
                        <path
                            d="M77.6644 20.163C78.4949 20.2824 79.1647 20.2227 79.7273 20.4617C80.2631 20.7006 80.8257 21.1188 81.174 21.6565C82.3795 23.5683 83.5047 25.5697 84.6835 27.5412C84.8443 27.7801 85.005 28.049 85.2193 28.4074C85.4069 28.1386 85.5408 27.9295 85.6748 27.7503C86.7732 25.8982 87.9252 24.106 88.9432 22.1942C89.8273 20.4915 91.14 20.1928 92.7742 20.2824C92.6135 20.5812 92.4795 20.85 92.3188 21.089C90.7381 23.8073 89.1575 26.5255 87.5769 29.214C87.309 29.6919 86.9607 30.14 86.5856 30.4984C85.648 31.3647 84.5764 31.3049 83.7191 30.3192C83.3708 29.901 83.0761 29.4231 82.7814 28.975C81.2543 26.4061 79.7541 23.8073 78.227 21.2085C78.0663 20.9396 77.9323 20.6409 77.6644 20.163Z"
                            fill="white" />
                        <path
                            d="M80.3982 0.47788C80.3982 0.776593 80.3982 1.01556 80.3982 1.28441C80.3982 5.25729 80.3982 9.23017 80.3982 13.2031C80.3982 14.7862 81.068 15.533 82.4611 15.533C83.3183 15.533 84.1756 15.5629 85.0329 15.533C85.4884 15.5031 85.6759 15.6525 85.6759 16.2201C85.6223 17.9825 85.8902 17.7136 84.3364 17.7435C83.238 17.7435 82.1128 17.7435 81.0144 17.7435C79.0855 17.7136 77.8531 16.3097 77.8531 14.1888C77.8531 10.5744 77.8799 6.95995 77.8531 3.31565C77.7995 1.58312 78.9515 0.328524 80.3982 0.47788Z"
                            fill="white" />
                        <path
                            d="M107.805 26.6151C107.805 25.3904 107.805 24.1956 107.805 22.9708C107.805 21.3578 108.662 20.3123 110.135 20.2824C111.662 20.2227 113.216 20.2824 114.743 20.2526C115.118 20.2526 115.279 20.4019 115.279 20.8201C115.252 22.941 115.52 22.4929 113.806 22.5527C113.297 22.5527 112.788 22.5527 112.279 22.5527C111.1 22.5527 110.43 23.2994 110.43 24.6436C110.43 26.5554 110.403 28.4672 110.43 30.3491C110.43 30.9166 110.323 31.1854 109.76 31.1257C109.305 31.066 108.849 31.0958 108.421 31.1257C107.965 31.1556 107.831 30.9465 107.831 30.4387C107.831 29.1841 107.831 27.8996 107.805 26.6151Z"
                            fill="white" />
                        <path
                            d="M133.604 25.7192C133.604 27.3024 133.577 28.8557 133.604 30.4389C133.604 30.9467 133.497 31.1857 132.988 31.1558C132.479 31.1259 131.97 31.1857 131.461 31.1259C131.3 31.0961 131.032 30.7973 131.032 30.648C131.005 27.9297 130.979 25.2114 131.032 22.523C131.059 21.358 132.131 20.3424 133.202 20.2827C133.631 20.2528 133.604 20.5814 133.604 20.91C133.604 22.4931 133.604 24.1062 133.604 25.7192Z"
                            fill="white" />
                        <path
                            d="M2.59866 12.3369C2.59866 13.9201 2.57187 15.4734 2.59866 17.0566C2.59866 17.5943 2.43792 17.7436 1.9557 17.7436C-2.55493e-07 17.7735 0 17.8034 0 15.6228C0 13.5915 0 11.5304 0 9.49915C0 8.18482 0.857291 7.13933 2.03607 6.98997C2.46471 6.93023 2.59866 7.10945 2.59866 7.58739C2.59866 9.1407 2.59866 10.7537 2.59866 12.3369Z"
                            fill="white" />
                        <path
                            d="M76.969 25.6893C76.969 27.2725 76.9422 28.8258 76.969 30.409C76.969 30.9466 76.8618 31.2155 76.326 31.1557C75.8706 31.096 75.3884 31.1856 74.9329 31.1259C74.7722 31.096 74.4775 30.8271 74.4775 30.6479C74.4507 27.8699 74.4507 25.0919 74.4775 22.3138C74.5043 21.2982 75.7634 20.1332 76.6207 20.3125C76.7547 20.3423 76.9154 20.7307 76.9422 20.9398C76.9958 22.4931 76.969 24.0762 76.969 25.6893Z"
                            fill="white" />
                        <path
                            d="M90.5515 12.3666C90.5515 13.8602 90.5247 15.3537 90.5515 16.8772C90.5515 17.5045 90.4175 17.7733 89.8014 17.7434C88.0332 17.7136 88.0332 17.7434 88.0332 15.7421C88.0332 13.5913 88.06 11.4705 88.0332 9.31975C88.0064 7.88593 89.1048 7.13915 90.0157 6.95992C90.4711 6.87031 90.5515 7.16902 90.5515 7.58722C90.5515 9.17039 90.5515 10.7834 90.5515 12.3666Z"
                            fill="white" />
                        <path
                            d="M104.804 28.7957C102.098 28.8255 99.3921 28.8255 96.6595 28.7957C95.9362 28.7957 95.5076 28.4073 95.5343 27.78C95.5611 27.1528 95.9362 26.8242 96.6595 26.8242C98.5081 26.8242 100.33 26.854 102.178 26.7943C102.741 26.7644 103.33 26.6449 103.839 26.3761C104.723 25.9579 105.42 25.241 105.527 24.1357C105.768 21.985 104.429 20.2823 102.473 20.2226C100.33 20.1927 98.2134 20.1927 96.0701 20.2226C94.1948 20.2525 92.9625 21.746 92.9625 23.837C92.9625 25.1812 92.9893 26.5553 92.9625 27.8995C92.9625 28.7061 93.2036 29.3334 93.6858 29.871C94.4091 30.6776 95.2932 31.0659 96.2845 31.0659C97.7044 31.0958 99.151 31.0659 100.571 31.0659C101.776 31.0659 103.009 31.0659 104.214 31.0659C105.768 31.036 105.5 31.3347 105.554 29.5425C105.581 28.945 105.366 28.7957 104.804 28.7957ZM95.4272 23.9266C95.454 23.0604 95.8826 22.5526 96.6595 22.5526C98.4009 22.5526 100.115 22.5526 101.857 22.5526C102.58 22.5526 102.928 22.8811 102.928 23.5383C102.928 24.1955 102.553 24.5241 101.857 24.5241C100.892 24.5241 99.928 24.5241 98.9635 24.5241C97.9723 24.5241 96.9542 24.4942 95.963 24.5241C95.5343 24.5539 95.4272 24.3448 95.4272 23.9266Z"
                            fill="white" />
                        <path
                            d="M98.9906 24.5247C97.9994 24.5247 96.9814 24.4943 95.9901 24.5247C96.9814 24.5247 97.9726 24.5247 98.9906 24.5247C99.9551 24.5247 100.92 24.5247 101.884 24.5247C100.893 24.5552 99.9551 24.5247 98.9906 24.5247Z"
                            fill="white" />
                    </svg>

<svg width="156" height="40" fill="none" xmlns="http://www.w3.org/2000/svg"><path d="M7.34 9.2c-.026.419-.08.717-.08 1.016 0 2.24-.027 4.48 0 6.721 0 .627-.16.836-.723.836-1.769 0-1.769 0-1.769-1.971V9.23c0-1.374.777-2.15 1.983-2.24 1.34-.12 2.358.239 3.322 1.404 1.929 2.3 4.018 4.42 6.028 6.601.107.12.214.21.455.419.027-.389.08-.657.08-.896V8.931c0-1.255.536-1.882 1.688-1.912.51-.03 1.018.03 1.527-.03.59-.06 1.018.209 1.42.657 2.197 2.42 4.42 4.81 6.644 7.229.134.15.295.299.563.568.027-.449.054-.688.054-.927V8.873c0-1.195.509-1.792 1.607-1.852.455-.03.884 0 1.232 0-.107.747-.294 1.463-.294 2.21-.054 2.21 0 4.421-.027 6.632 0 .388-.054.806-.16 1.195-.162.478-.483.776-.965.746-.483-.03-.992-.06-1.474 0-.991.15-1.688-.328-2.357-1.105-2.063-2.33-4.18-4.63-6.296-6.93a8.327 8.327 0 0 0-.616-.597c-.027.448-.054.687-.054.926V16.1c0 1.254-.375 1.702-1.473 1.672-3-.06-2.036.448-4.206-1.911a383.522 383.522 0 0 0-5.573-6.154c-.134-.15-.295-.269-.536-.508zM48.09 17.863v-7.14c0-2.33 1.285-3.763 3.375-3.763h6.162c1.982 0 3.295 1.463 3.295 3.644v3.704c0 1.882-1.26 3.375-2.974 3.405-2.116.03-4.233 0-6.349.03-.938 0-.938 0-.938 1.016v4.72c0 1.344-.616 2.24-1.795 2.598-.696.21-.803.12-.803-.657.026-2.539.026-5.048.026-7.557zm6.402-2.33h2.492c.938 0 1.34-.448 1.34-1.464v-3.435c0-.896-.376-1.434-1.18-1.464a78.523 78.523 0 0 0-5.304 0c-.804.03-1.179.538-1.179 1.434v3.495c0 .926.429 1.404 1.26 1.404.884.03 1.74.03 2.571.03zM121.253 31.126c-1.446 0-2.893-.03-4.366 0-.456 0-.643-.15-.643-.687.053-1.942-.241-1.613 1.446-1.613 2.385-.03 4.796 0 7.18 0h.509c.563-.03.991-.478.965-1.016 0-.508-.456-.956-1.018-.956-1.876 0-3.751.03-5.626-.03a4.04 4.04 0 0 1-1.554-.328c-1.34-.568-1.983-1.762-1.902-3.286.08-1.255 1.071-2.48 2.33-2.808.322-.09.67-.15 1.018-.15 2.787 0 5.546 0 8.332-.03.536 0 .697.18.697.778-.054 1.822.214 1.523-1.393 1.523-2.304.03-4.608 0-6.912 0h-.456c-.562.03-.991.448-.964.986 0 .537.429.985.991.985 1.875 0 3.751 0 5.626.03.429 0 .857.06 1.259.21a3.223 3.223 0 0 1 2.224 3.106c-.027 1.494-1.045 2.778-2.492 3.107-.401.09-.803.12-1.205.15-1.367.029-2.706.029-4.046.029zM72.682 20.253c-.134.627-.322 1.224-.348 1.822-.027 2.39-.027 4.75-.027 7.14 0 1.403-.456 1.791-1.661 1.94-1.608.18-2.786-.447-3.858-1.762-1.822-2.21-3.804-4.241-5.733-6.332-.134-.15-.322-.3-.59-.568-.026.448-.053.717-.053.986 0 2.3-.027 4.63 0 6.93 0 .568-.134.777-.643.747-.455-.03-.938-.03-1.42 0-.375.03-.536-.12-.536-.568 0-2.629-.027-5.227.027-7.856.027-1.673.83-2.45 2.33-2.45.296 0 .59.03.885 0 .59-.06 1.018.18 1.42.628 2.116 2.33 4.26 4.66 6.403 6.99.214.239.455.448.83.806.027-.418.027-.687.027-.926v-5.347c0-1.433.563-2.09 1.875-2.15.402-.06.804-.03 1.072-.03zM153.455 31.126h-6.751c-.858 0-1.634-.24-2.331-.837-.697-.597-1.098-1.344-1.072-2.39.027-1.553 0-3.106.027-4.63.027-1.373 1.072-2.628 2.438-2.807 0 .268.027.508.027.747v6.063c0 1.106.402 1.524 1.393 1.554h5.01c.911 0 1.259-.419 1.259-1.434.027-1.494-.027-2.987.107-4.48.107-1.285 1.125-2.241 2.411-2.45.027.268.027.508.027.747v17.444c0 .837-.107.926-.804.717-1.098-.328-1.768-1.284-1.768-2.569 0-1.882.027-3.734.027-5.675zM98.16 17.714c-1.528 0-3.028-.03-4.555 0-.482 0-.67-.15-.67-.747.054-1.733-.188-1.464 1.34-1.464 2.438-.03 4.875 0 7.313 0 .215 0 .429.03.643-.03.456-.09.858-.448.804-.956-.054-.358-.375-.746-.67-.985-.187-.15-.536-.12-.803-.12h-5.573c-1.286-.03-2.518-.986-2.866-2.21-.617-2.061.83-4.242 2.893-4.242 2.92-.03 5.84 0 8.787-.03.375 0 .536.12.536.568-.027 1.941.188 1.613-1.393 1.613-2.277.03-4.528 0-6.805 0-.241 0-.509.03-.75.09-.509.119-.83.477-.777 1.045.027.597.402.926.938.956.83.03 1.66 0 2.491 0 1.152 0 2.304-.09 3.456.03.724.09 1.5.418 2.117.866.964.717 1.259 2.15.911 3.405-.322 1.075-1.554 2.121-2.653 2.15-1.607.09-3.161.06-4.715.06zM39.65 17.713c-1.099 0-2.17.03-3.269 0-1.875-.03-3.054-1.374-3.054-3.465v-3.943c0-1.882 1.26-3.345 2.947-3.375 2.25-.03 4.474-.03 6.724 0 1.367.03 3.162 1.314 3.055 3.465-.054 1.314 0 2.629 0 3.943 0 1.822-1.233 3.286-2.894 3.345-1.152.06-2.33.03-3.51.03zm0-2.18h2.571c.858 0 1.26-.448 1.26-1.404v-3.495c0-.926-.349-1.434-1.152-1.464a78.523 78.523 0 0 0-5.305 0c-.804.03-1.179.538-1.206 1.434v3.495c0 .926.456 1.404 1.287 1.404.83.03 1.687.03 2.545.03zM69.414 17.713h-3.269c-1.902-.03-3.08-1.404-3.08-3.495v-3.913c0-1.822 1.259-3.315 2.92-3.345 2.277-.03 4.554-.03 6.858 0 1.34.03 3.08 1.344 2.947 3.405-.08 1.344-.027 2.718-.027 4.063 0 1.732-1.206 3.196-2.786 3.256-1.179.06-2.358.03-3.563.03zm.027-2.18h2.491c.884 0 1.34-.448 1.366-1.404.027-1.195.027-2.39 0-3.555-.026-.836-.455-1.374-1.205-1.374-1.795-.03-3.59-.03-5.385 0-.75.03-1.152.568-1.179 1.404a78.588 78.588 0 0 0 0 3.555c.027.866.482 1.374 1.26 1.374h2.652z" fill="#fff"/><path d="M45.544 20.402V27.392c0 .986.401 1.434 1.285 1.434h5.117c.858 0 1.26-.418 1.26-1.374v-3.913c.026-1.554 1.071-2.838 2.545-3.077.026.269.026.508.026.747 0 2.06-.08 4.092.027 6.153.107 2.45-1.554 3.734-3.268 3.794-2.09.06-4.18.03-6.27 0-.91 0-1.714-.359-2.383-1.046-.536-.537-.831-1.165-.831-2.001.027-1.523 0-3.047 0-4.57 0-1.643.91-2.778 2.492-3.137zM138.346 20.253c.937 0 1.768.03 2.625 0 .429-.03.616.149.59.657-.054 2.031.241 1.613-1.474 1.672h-1.714c0 1.673-.054 3.286.026 4.9.027.746.804 1.344 1.527 1.373.643.03 1.286.03 1.929 0 .349 0 .483.15.509.538.081 1.763.108 1.793-1.5 1.763-.857 0-1.714 0-2.545-.15-1.607-.299-2.518-1.553-2.518-3.375V16.28c0-1.255.937-2.39 1.982-2.48.456-.03.616.12.616.628-.026 1.672 0 3.345 0 4.988-.053.269-.053.508-.053.837zM77.664 20.163c.83.12 1.5.06 2.063.299.536.239 1.099.657 1.447 1.195 1.205 1.911 2.33 3.913 3.51 5.884.16.24.321.508.535.866.188-.268.322-.477.456-.657 1.098-1.852 2.25-3.644 3.268-5.556.884-1.703 2.197-2.001 3.831-1.912-.16.3-.294.568-.455.807-1.58 2.718-3.162 5.437-4.742 8.125a5.586 5.586 0 0 1-.991 1.284c-.938.867-2.01.807-2.867-.179-.348-.418-.643-.896-.938-1.344-1.527-2.569-3.027-5.168-4.554-7.767-.16-.268-.295-.567-.563-1.045zM80.398.478V13.204c0 1.582.67 2.329 2.063 2.329.857 0 1.715.03 2.572 0 .455-.03.643.12.643.687-.054 1.763.214 1.494-1.34 1.524h-3.322c-1.928-.03-3.16-1.434-3.16-3.555 0-3.615.026-7.229 0-10.873C77.798 1.583 78.95.329 80.397.478zM107.805 26.615v-3.644c0-1.613.857-2.659 2.33-2.689 1.527-.06 3.081 0 4.608-.03.375 0 .536.15.536.568-.027 2.121.241 1.673-1.473 1.733h-1.527c-1.179 0-1.849.746-1.849 2.09 0 1.912-.027 3.824 0 5.706 0 .568-.107.836-.67.777-.455-.06-.911-.03-1.339 0-.456.03-.59-.18-.59-.687 0-1.255 0-2.54-.026-3.824zM133.604 25.72c0 1.582-.027 3.136 0 4.719 0 .508-.107.747-.616.717-.509-.03-1.018.03-1.527-.03-.161-.03-.429-.329-.429-.478-.027-2.718-.053-5.437 0-8.125.027-1.165 1.099-2.18 2.17-2.24.429-.03.402.298.402.627v4.81zM2.599 12.337c0 1.583-.027 3.136 0 4.72 0 .537-.161.687-.643.687C0 17.774 0 17.804 0 15.623V9.499C0 8.185.857 7.14 2.036 6.99c.429-.06.563.12.563.597v4.75zM76.969 25.69c0 1.582-.027 3.136 0 4.719 0 .538-.107.806-.643.747-.455-.06-.938.03-1.393-.03-.16-.03-.456-.299-.456-.478a431.958 431.958 0 0 1 0-8.334c.027-1.016 1.286-2.18 2.144-2.002.134.03.294.419.321.628.054 1.553.027 3.136.027 4.75zM90.552 12.367c0 1.493-.027 2.987 0 4.51 0 .628-.135.896-.75.866-1.769-.03-1.769 0-1.769-2 0-2.152.027-4.273 0-6.423-.027-1.434 1.072-2.18 1.983-2.36.455-.09.535.209.535.627v4.78zM104.804 28.796c-2.706.03-5.412.03-8.145 0-.723 0-1.151-.389-1.125-1.016.027-.627.402-.956 1.125-.956 1.85 0 3.671.03 5.519-.03.563-.03 1.152-.15 1.661-.418.884-.418 1.581-1.135 1.688-2.24.241-2.151-1.098-3.854-3.054-3.913-2.143-.03-4.26-.03-6.403 0-1.875.03-3.107 1.523-3.107 3.614 0 1.344.026 2.718 0 4.063 0 .806.24 1.433.723 1.971.723.807 1.607 1.195 2.598 1.195 1.42.03 2.867 0 4.287 0h3.643c1.554-.03 1.286.269 1.34-1.523.027-.598-.188-.747-.75-.747zm-9.377-4.87c.027-.866.456-1.373 1.232-1.373h5.198c.723 0 1.071.328 1.071.985s-.375.986-1.071.986h-2.894c-.99 0-2.009-.03-3 0-.429.03-.536-.18-.536-.597z" fill="#fff"/><path d="M98.99 24.525c-.99 0-2.009-.03-3 0h5.894c-.991.03-1.929 0-2.893 0z" fill="#fff"/></svg>
